static/images/mobile/copyright/test-wikidata-icon.svg

<svg xmlns="http://www.w3.org/2000/svg" width="50" height="50" viewBox="0 0 50 50"><path d="M1.52766688e-13 40.7670371 1.794632 40.7670371 1.794632 10.0000037 1.52766688e-13 10.0000037 1.52766688e-13 40.7670371ZM3.70908062 40.7670371 9.21241969 40.7670371 9.21241969 10.0000037 3.70908062 10.0000037 3.70908062 40.7670371ZM11.0074252 10.0000037 11.0074252 40.7659393 16.5107643 40.7659393 16.5107643 10.0000037 11.0074252 10.0000037ZM44.2805311 40.7692285 46.075536 40.7692285 46.075536 10 44.2805311 10 44.2805311 40.7692285ZM47.9899846 10 47.9899846 40.7692285 49.7846166 40.7692285 49.7846166 10 47.9899846 10ZM18.3651182 40.7692328 20.1597502 40.7692328 20.1597502 10.0000037 18.3651182 10.0000037 18.3651182 40.7692328ZM22.0745717 10.0000037 22.0745717 40.768135 23.8695772 40.768135 23.8695772 10.0000037 22.0745717 10.0000037ZM25.723184 40.7692328 31.2272702 40.7692328 31.2272702 10.0000037 25.723184 10.0000037 25.723184 40.7692328ZM33.0215286 40.7692328 34.9356037 40.7692328 34.9356037 10.0000037 33.0215286 10.0000037 33.0215286 40.7692328 33.0215286 40.7692328ZM36.7306092 10.0000037 36.7306092 40.768135 42.2339483 40.768135 42.2339483 10.0000037 36.7306092 10.0000037Z"/></svg>

<svg xmlns="http://www.w3.org/2000/svg" width="50" height="50"><path d="M0 40.767h1.795V10H0v30.767zm3.71 0h5.502V10H3.71v30.767zM11.006 10v30.766h5.504V10h-5.504zm33.274 30.77h1.795V10H44.28v30.77zM47.99 10v30.77h1.795V10H47.99zM18.365 40.77h1.795V10h-1.795v30.77zM22.075 10v30.768h1.795V10h-1.795zm3.648 30.77h5.504V10h-5.504v30.77zm7.299 0h1.914V10h-1.914v30.77zM36.73 10v30.768h5.503V10H36.73z"/></svg>
